assets/svgs/genesis.svg

<?xml version="1.0" encoding="UTF-8" standalone="no"?>
<svg
   xmlns:dc="http://purl.org/dc/elements/1.1/"
   xmlns:cc="http://creativecommons.org/ns#"
   xmlns:rdf="http://www.w3.org/1999/02/22-rdf-syntax-ns#"
   xmlns:svg="http://www.w3.org/2000/svg"
   xmlns="http://www.w3.org/2000/svg"
   xmlns:sodipodi="http://sodipodi.sourceforge.net/DTD/sodipodi-0.dtd"
   xmlns:inkscape="http://www.inkscape.org/namespaces/inkscape"
   version="1.1"
   id="svg19"
   sodipodi:docname="genesis.svg"
   width="264"
   height="63.000999"
   inkscape:version="0.92.5 (2060ec1f9f, 2020-04-08)">
  <metadata
     id="metadata25">
    <rdf:RDF>
      <cc:Work
         rdf:about="">
        <dc:format>image/svg+xml</dc:format>
        <dc:type
           rdf:resource="http://purl.org/dc/dcmitype/StillImage" />
      </cc:Work>
    </rdf:RDF>
  </metadata>
  <defs
     id="defs23" />
  <sodipodi:namedview
     pagecolor="#ffffff"
     bordercolor="#666666"
     borderopacity="1"
     objecttolerance="10"
     gridtolerance="10"
     guidetolerance="10"
     inkscape:pageopacity="0"
     inkscape:pageshadow="2"
     inkscape:window-width="640"
     inkscape:window-height="480"
     id="namedview21"
     showgrid="false"
     inkscape:zoom="2.36"
     inkscape:cx="50.00001"
     inkscape:cy="13.001"
     inkscape:window-x="72"
     inkscape:window-y="27"
     inkscape:window-maximized="0"
     inkscape:current-layer="svg19" />
  <g
     transform="translate(-208.504,-398.761)"
     id="g3">
    <path
       d="m 212.402,429.325 14.814,-8.577 h 72.9 l 13.177,-18.869 h 53.098 l 13.332,18.869 h 73.993 l 14.89,8.656 v 20.113 l -15.75,9.123 H 228.151 l -15.749,-9.123 z m 241.39,32.437 18.712,-10.839 V 427.999 L 454.573,417.63 h -73.292 l -13.177,-18.869 h -56.37 l -13.255,18.869 h -72.12 l -17.855,10.291 v 23.002 l 18.791,10.839 z"
       id="polygon9"
       style="fill:#ffffff;fill-rule:evenodd"
       inkscape:connector-curvature="0" />
    <path
       d="m 330.066,416.168 c 0,0.988 0.805,1.771 1.771,1.761 h 7.233 v -2.203 h -6.793 v -0.617 h 5.353 v -2.192 h -7.553 z"
       id="path11"
       style="fill:#ffffff;fill-rule:evenodd"
       inkscape:connector-curvature="0" />
    <path
       d="m 330.077,408.907 c 0,-0.911 0.784,-1.756 1.76,-1.752 h 7.233 v 2.192 h -6.793 v 0.617 h 5.353 v 2.222 h -7.564 z"
       id="path13"
       style="fill:#ffffff;fill-rule:evenodd"
       inkscape:connector-curvature="0" />
    <polygon
       points="401.32,446.244 393.134,451.78 367.832,451.78 376.214,446.165 391.027,446.165 391.027,442.735 368.104,442.735 368.104,433.806 376.566,428.077 376.566,428.077 401.827,428.077 393.483,433.689 378.397,433.689 378.397,437.122 401.32,437.122 "
       id="polygon15"
       style="fill:#ffffff;fill-rule:evenodd" />
    <polygon
       points="414.809,428.077 414.809,451.78 404.518,451.78 404.518,428.077 "
       id="polygon17"
       style="fill:#ffffff;fill-rule:evenodd" />
    <polygon
       points="452,446.244 443.811,451.78 418.512,451.78 426.894,446.165 441.708,446.165 441.708,442.735 418.785,442.735 418.785,433.806 427.244,428.077 427.244,428.077 452.507,428.077 444.163,433.689 429.077,433.689 429.077,437.122 452,437.122 "
       id="polygon19"
       style="fill:#ffffff;fill-rule:evenodd" />
    <polygon
       points="355.668,442.735 364.05,437.122 345.807,437.122 345.807,433.689 360.658,433.689 369.002,428.077 344.481,428.077 335.515,433.575 335.515,433.575 335.515,451.78 360.465,451.78 368.885,446.165 345.807,446.165 345.807,442.735 "
       id="polygon21"
       style="fill:#ffffff;fill-rule:evenodd" />
    <polygon
       points="283.627,442.735 292.008,437.122 273.764,437.122 273.764,433.689 288.616,433.689 296.959,428.077 272.437,428.077 263.473,433.575 263.473,433.575 263.473,451.78 288.422,451.78 296.843,446.165 273.764,446.165 273.764,442.735 "
       id="polygon23"
       style="fill:#ffffff;fill-rule:evenodd" />
    <polygon
       points="309.551,451.78 299.258,451.78 299.258,428.077 309.706,428.077 322.338,435.016 322.338,428.077 322.338,428.077 332.63,428.077 332.63,451.78 322.338,451.78 322.338,443.905 309.551,435.951 "
       id="polygon25"
       style="fill:#ffffff;fill-rule:evenodd" />
    <polygon
       points="250.528,446.165 250.528,442.735 240.081,442.735 248.424,437.122 260.821,437.122 260.821,446.479 252.945,451.78 227.451,451.78 227.451,433.848 227.451,433.848 235.988,428.077 263.901,428.077 255.597,433.689 237.742,433.689 237.742,446.165 "
       id="polygon27"
       style="fill:#ffffff;fill-rule:evenodd" />
    <path
       d="m 331.579,404.2 c -2.455,0 -4.446,1.991 -4.446,4.445 v 7.781 c 0,2.455 1.991,4.445 4.446,4.445 h 7.493 v -2.191 h -7.307 c -1.289,0 -2.432,-1.222 -2.432,-2.51 v -7.271 c 0,-1.289 1.143,-2.48 2.432,-2.48 h 7.307 v -2.222 h -7.493 z"
       id="path29"
       style="fill:#ffffff;fill-rule:evenodd"
       inkscape:connector-curvature="0" />
    <path
       d="m 345.765,415.786 v -6.439 h 7.145 v -2.192 h -7.546 c -0.976,-0.004 -1.76,0.841 -1.76,1.752 l -0.009,7.261 c 0,0.988 0.803,1.771 1.769,1.761 h 4.603 l -0.012,-5.051 h -3.463 v 2.172 h 1.28 v 0.735 h -2.007 z"
       id="path31"
       style="fill:#ffffff;fill-rule:evenodd"
       inkscape:connector-curvature="0" />
    <path
       d="m 325.014,404.179 h -7.178 c -3.024,0 -5.477,2.452 -5.477,5.476 0,3.025 2.453,5.418 5.477,5.392 h 2.187 v 0.739 h -7.616 v 2.144 h 7.368 c 1.385,0 2.509,-1.124 2.509,-2.507 0,-1.385 -1.124,-2.489 -2.509,-2.489 l -1.909,-0.008 c -1.797,0 -3.254,-1.457 -3.254,-3.253 0,-1.797 1.456,-3.254 3.254,-3.254 h 7.153 z"
       id="path33"
       style="fill:#ffffff;fill-rule:evenodd"
       inkscape:connector-curvature="0" />
    <path
       d="m 325.014,409.288 h -7.461 v 0.735 l 2.238,0.004 c 3.026,0 5.477,2.393 5.477,5.417 0,3.025 -2.451,5.424 -5.477,5.424 l -7.384,-0.015 v -2.179 h 7.368 c 1.797,0 3.254,-1.456 3.254,-3.253 0,-1.796 -1.457,-3.234 -3.254,-3.234 l -1.909,-0.007 c -1.385,0 -2.509,-1.124 -2.509,-2.509 0,-1.385 1.124,-2.508 2.509,-2.508 h 7.153 z"
       id="path35"
       style="fill:#ffffff;fill-rule:evenodd"
       inkscape:connector-curvature="0" />
    <path
       d="m 361.257,406.78 c -0.089,-0.209 -0.12,-0.259 -0.36,-0.259 -0.241,0 -0.299,0.125 -0.391,0.334 l -4.55,14.016 2.394,0.003 2.574,-7.77 0.847,2.624 h -1.699 v 2.211 h 4.835 z"
       id="path37"
       style="fill:#ffffff;fill-rule:evenodd"
       inkscape:connector-curvature="0" />
    <path
       d="m 345.106,420.873 c -2.455,0 -4.447,-1.991 -4.447,-4.445 v -7.781 c 0,-2.455 1.992,-4.445 4.447,-4.445 h 7.804 v 2.222 h -7.616 c -1.291,0 -2.434,1.191 -2.434,2.48 v 7.27 c 0,1.289 1.142,2.51 2.434,2.51 h 5.395 v -6.536 h -4.195 v -2.182 h 6.425 v 10.395 l 4.577,-14.163 c 0.492,-1.403 1.828,-2.409 3.401,-2.409 1.604,0 2.966,1.05 3.429,2.502 l 4.753,14.583 h -9.007 v -2.191 h 5.851 l -3.967,-12.163 c -0.232,-0.669 -0.646,-0.748 -1.059,-0.748 -0.432,0 -0.831,0.177 -1.056,0.788 l -4.657,14.314 h -10.078 z"
       id="path39"
       style="fill:#ffffff;fill-rule:evenodd"
       inkscape:connector-curvature="0" />
  </g>
</svg>

<?xml version="1.0" encoding="utf-8"?>
<svg version="1.1" viewBox="0 0 264 63" xmlns="http://www.w3.org/2000/svg">
  <g transform="translate(-208.50401,-398.761)" id="g3">
    <path d="M 212.402 429.325 L 227.216 420.748 L 300.116 420.748 L 313.293 401.879 L 366.391 401.879 L 379.723 420.748 L 453.716 420.748 L 468.606 429.404 L 468.606 449.517 L 452.856 458.64 L 228.151 458.64 L 212.402 449.517 Z M 453.792 461.762 L 472.504 450.923 L 472.504 427.999 L 454.573 417.63 L 381.281 417.63 L 368.104 398.761 L 311.734 398.761 L 298.479 417.63 L 226.359 417.63 L 208.504 427.921 L 208.504 450.923 L 227.295 461.762 Z" id="polygon9" style="fill-rule: evenodd; fill: rgb(255, 255, 255);"/>
    <path d="M 330.066 416.168 C 330.066 417.156 330.871 417.939 331.837 417.929 L 339.07 417.929 L 339.07 415.726 L 332.277 415.726 L 332.277 415.109 L 337.63 415.109 L 337.63 412.917 L 330.077 412.917 L 330.066 416.168 L 330.066 416.168 Z" id="path11" style="fill-rule: evenodd; fill: rgb(255, 255, 255);"/>
    <path d="M 330.077 408.907 C 330.077 407.996 330.861 407.151 331.837 407.155 L 339.07 407.155 L 339.07 409.347 L 332.277 409.347 L 332.277 409.964 L 337.63 409.964 L 337.63 412.186 L 330.066 412.186 L 330.077 408.907 L 330.077 408.907 Z" id="path13" style="fill-rule: evenodd; fill: rgb(255, 255, 255);"/>
    <polygon points="378.397 437.122 401.32 437.122 401.32 446.244 393.134 451.78 367.832 451.78 376.214 446.165 391.027 446.165 391.027 442.735 368.104 442.735 368.104 433.806 376.566 428.077 376.566 428.077 401.827 428.077 393.483 433.689 378.397 433.689" id="polygon15" style="fill-rule: evenodd; fill: rgb(255, 255, 255);"/>
    <polygon points="404.518 428.077 404.518 428.077 414.809 428.077 414.809 451.78 404.518 451.78" id="polygon17" style="fill-rule: evenodd; fill: rgb(255, 255, 255);"/>
    <polygon points="429.077 437.122 452 437.122 452 446.244 443.811 451.78 418.512 451.78 426.894 446.165 441.708 446.165 441.708 442.735 418.785 442.735 418.785 433.806 427.244 428.077 427.244 428.077 452.507 428.077 444.163 433.689 429.077 433.689" id="polygon19" style="fill-rule: evenodd; fill: rgb(255, 255, 255);"/>
    <polygon points="345.807 446.165 345.807 442.735 355.668 442.735 364.05 437.122 345.807 437.122 345.807 433.689 360.658 433.689 369.002 428.077 344.481 428.077 335.515 433.575 335.515 433.575 335.515 451.78 360.465 451.78 368.885 446.165" id="polygon21" style="fill-rule: evenodd; fill: rgb(255, 255, 255);"/>
    <polygon points="273.764 446.165 273.764 442.735 283.627 442.735 292.008 437.122 273.764 437.122 273.764 433.689 288.616 433.689 296.959 428.077 272.437 428.077 263.473 433.575 263.473 433.575 263.473 451.78 288.422 451.78 296.843 446.165" id="polygon23" style="fill-rule: evenodd; fill: rgb(255, 255, 255);"/>
    <polygon points="322.338 443.905 309.551 435.951 309.551 451.78 299.258 451.78 299.258 428.077 309.706 428.077 322.338 435.016 322.338 428.077 322.338 428.077 332.63 428.077 332.63 451.78 322.338 451.78" id="polygon25" style="fill-rule: evenodd; fill: rgb(255, 255, 255);"/>
    <polygon points="237.742 433.689 237.742 446.165 250.528 446.165 250.528 442.735 240.081 442.735 248.424 437.122 260.821 437.122 260.821 446.479 252.945 451.78 227.451 451.78 227.451 433.848 227.451 433.848 235.988 428.077 263.901 428.077 255.597 433.689" id="polygon27" style="fill-rule: evenodd; fill: rgb(255, 255, 255);"/>
    <path d="M 331.579 404.2 C 329.124 404.2 327.133 406.191 327.133 408.645 L 327.133 416.426 C 327.133 418.881 329.124 420.871 331.579 420.871 L 339.072 420.871 L 339.072 418.68 L 331.765 418.68 C 330.476 418.68 329.333 417.458 329.333 416.17 L 329.333 408.899 C 329.333 407.61 330.476 406.419 331.765 406.419 L 339.072 406.419 L 339.072 404.197 L 331.579 404.197 L 331.579 404.2 Z" id="path29" style="fill-rule: evenodd; fill: rgb(255, 255, 255);"/>
    <path d="M 345.765 415.786 L 345.765 409.347 L 352.91 409.347 L 352.91 407.155 L 345.364 407.155 C 344.388 407.151 343.604 407.996 343.604 408.907 L 343.595 416.168 C 343.595 417.156 344.398 417.939 345.364 417.929 L 349.967 417.929 L 349.955 412.878 L 346.492 412.878 L 346.492 415.05 L 347.772 415.05 L 347.772 415.785 L 345.765 415.785 L 345.765 415.786 Z" id="path31" style="fill-rule: evenodd; fill: rgb(255, 255, 255);"/>
    <path d="M 325.014 404.179 L 317.836 404.179 C 314.812 404.179 312.359 406.631 312.359 409.655 C 312.359 412.68 314.812 415.073 317.836 415.047 L 320.023 415.047 L 320.023 415.786 L 312.407 415.786 L 312.407 417.93 L 319.775 417.93 C 321.16 417.93 322.284 416.806 322.284 415.423 C 322.284 414.038 321.16 412.934 319.775 412.934 L 317.866 412.926 C 316.069 412.926 314.612 411.469 314.612 409.673 C 314.612 407.876 316.068 406.419 317.866 406.419 L 325.019 406.419 L 325.014 404.179 L 325.014 404.179 Z" id="path33" style="fill-rule: evenodd; fill: rgb(255, 255, 255);"/>
    <path d="M 325.014 409.288 L 317.553 409.288 L 317.553 410.023 L 319.791 410.027 C 322.817 410.027 325.268 412.42 325.268 415.444 C 325.268 418.469 322.817 420.868 319.791 420.868 L 312.407 420.853 L 312.407 418.674 L 319.775 418.674 C 321.572 418.674 323.029 417.218 323.029 415.421 C 323.029 413.625 321.572 412.187 319.775 412.187 L 317.866 412.18 C 316.481 412.18 315.357 411.056 315.357 409.671 C 315.357 408.286 316.481 407.163 317.866 407.163 L 325.019 407.163 L 325.014 409.288 L 325.014 409.288 Z" id="path35" style="fill-rule: evenodd; fill: rgb(255, 255, 255);"/>
    <path d="M 361.257 406.78 C 361.168 406.571 361.137 406.521 360.897 406.521 C 360.656 406.521 360.598 406.646 360.506 406.855 L 355.956 420.871 L 358.35 420.874 L 360.924 413.104 L 361.771 415.728 L 360.072 415.728 L 360.072 417.939 L 364.907 417.939 L 361.257 406.78 L 361.257 406.78 Z" id="path37" style="fill-rule: evenodd; fill: rgb(255, 255, 255);"/>
    <path d="M 345.106 420.873 C 342.651 420.873 340.659 418.882 340.659 416.428 L 340.659 408.647 C 340.659 406.192 342.651 404.202 345.106 404.202 L 352.91 404.202 L 352.91 406.424 L 345.294 406.424 C 344.003 406.424 342.86 407.615 342.86 408.904 L 342.86 416.174 C 342.86 417.463 344.002 418.684 345.294 418.684 L 350.689 418.684 L 350.689 412.148 L 346.494 412.148 L 346.494 409.966 L 352.919 409.966 L 352.919 420.361 L 357.496 406.198 C 357.988 404.795 359.324 403.789 360.897 403.789 C 362.501 403.789 363.863 404.839 364.326 406.291 L 369.079 420.874 L 360.072 420.874 L 360.072 418.683 L 365.923 418.683 L 361.956 406.52 C 361.724 405.851 361.31 405.772 360.897 405.772 C 360.465 405.772 360.066 405.949 359.841 406.56 L 355.184 420.874 L 345.106 420.874 L 345.106 420.873 Z" id="path39" style="fill-rule: evenodd; fill: rgb(255, 255, 255);"/>
  </g>
</svg>
